X:1
T:Greensleeves
C:Traditional English, 16th century
M:3/4
L:1/8
Q:3/4=56
K:Ador
A2 |c3 B A2 | F3 G A2 | B3 A F2 | D4 E2 |
E3 G B2 | A3 G F2 | G3 ^F D2 | A4 A2 |
c3 B A2 | F3 G A2 | B3 A F2 | D4 E2 |
E3 D E2 | F3 E D2 | c3 B A2 | A6 |]
